flaticon/essential/clock-1.svg

<svg xmlns="http://www.w3.org/2000/svg" width="32" height="32" viewBox="0 0 24 24">
    <path d="M 12 0 C 5.382812 0 0 5.382812 0 12 C 0 18.617188 5.382812 24 12 24 C 18.617188 24 24 18.617188 24 12 C 24 5.382812 18.617188 0 12 0 Z M 12 23.199219 C 5.824219 23.199219 0.800781 18.175781 0.800781 12 C 0.800781 5.824219 5.824219 0.800781 12 0.800781 C 18.175781 0.800781 23.199219 5.824219 23.199219 12 C 23.199219 18.175781 18.175781 23.199219 12 23.199219 Z M 12 23.199219"/>
    <path d="M12.398438 10.410156L12.398438 6.351562C12.398438 6.128906 12.222656 5.953125 12 5.953125 11.777344 5.953125 11.601562 6.128906 11.601562 6.351562L11.601562 10.410156C11.039062 10.554688 10.601562 10.992188 10.457031 11.550781L7.601562 11.550781C7.378906 11.550781 7.199219 11.730469 7.199219 11.953125 7.199219 12.171875 7.378906 12.351562 7.601562 12.351562L10.457031 12.351562C10.636719 13.039062 11.257812 13.550781 12 13.550781 12.882812 13.550781 13.601562 12.835938 13.601562 11.953125 13.601562 11.207031 13.089844 10.585938 12.398438 10.410156zM12 12.75C11.558594 12.75 11.199219 12.394531 11.199219 11.953125 11.199219 11.511719 11.558594 11.152344 12 11.152344 12.441406 11.152344 12.800781 11.511719 12.800781 11.953125 12.800781 12.394531 12.441406 12.75 12 12.75zM12 3.953125C12.222656 3.953125 12.398438 3.773438 12.398438 3.550781L12.398438 3.152344C12.398438 2.929688 12.222656 2.75 12 2.75 11.777344 2.75 11.601562 2.929688 11.601562 3.152344L11.601562 3.550781C11.601562 3.773438 11.777344 3.953125 12 3.953125zM12 19.953125C11.777344 19.953125 11.601562 20.128906 11.601562 20.351562L11.601562 20.75C11.601562 20.972656 11.777344 21.152344 12 21.152344 12.222656 21.152344 12.398438 20.972656 12.398438 20.75L12.398438 20.351562C12.398438 20.128906 12.222656 19.953125 12 19.953125zM20.800781 11.550781L20.398438 11.550781C20.179688 11.550781 20 11.730469 20 11.953125 20 12.171875 20.179688 12.351562 20.398438 12.351562L20.800781 12.351562C21.019531 12.351562 21.199219 12.171875 21.199219 11.953125 21.199219 11.730469 21.019531 11.550781 20.800781 11.550781zM3.601562 11.550781L3.199219 11.550781C2.980469 11.550781 2.800781 11.730469 2.800781 11.953125 2.800781 12.171875 2.980469 12.351562 3.199219 12.351562L3.601562 12.351562C3.820312 12.351562 4 12.171875 4 11.953125 4 11.730469 3.820312 11.550781 3.601562 11.550781zM17.941406 5.445312L17.65625 5.730469C17.5 5.886719 17.5 6.136719 17.65625 6.292969 17.734375 6.371094 17.835938 6.410156 17.941406 6.410156 18.042969 6.410156 18.144531 6.371094 18.222656 6.292969L18.503906 6.011719C18.660156 5.855469 18.660156 5.601562 18.503906 5.445312 18.347656 5.289062 18.097656 5.289062 17.941406 5.445312zM5.777344 17.609375L5.496094 17.890625C5.339844 18.046875 5.339844 18.300781 5.496094 18.457031 5.574219 18.535156 5.675781 18.574219 5.777344 18.574219 5.878906 18.574219 5.980469 18.535156 6.058594 18.457031L6.34375 18.175781C6.5 18.019531 6.5 17.765625 6.34375 17.609375 6.1875 17.453125 5.933594 17.453125 5.777344 17.609375zM18.222656 17.609375C18.066406 17.453125 17.8125 17.453125 17.65625 17.609375 17.5 17.765625 17.5 18.019531 17.65625 18.175781L17.941406 18.457031C18.019531 18.535156 18.121094 18.574219 18.222656 18.574219 18.324219 18.574219 18.425781 18.535156 18.503906 18.457031 18.660156 18.300781 18.660156 18.046875 18.503906 17.890625zM6.058594 5.445312C5.902344 5.289062 5.652344 5.289062 5.496094 5.445312 5.339844 5.601562 5.339844 5.855469 5.496094 6.011719L5.777344 6.292969C5.855469 6.371094 5.957031 6.410156 6.058594 6.410156 6.164062 6.410156 6.265625 6.371094 6.34375 6.292969 6.5 6.136719 6.5 5.886719 6.34375 5.730469zM6.058594 5.445312"/>
</svg>

<svg xmlns="http://www.w3.org/2000/svg" width="32" height="32" viewBox="0 0 24 24">
    <path d="M12 0C5.383 0 0 5.383 0 12s5.383 12 12 12 12-5.383 12-12S18.617 0 12 0zm0 23.2C5.824 23.2.8 18.175.8 12 .8 5.824 5.825.8 12 .8 18.176.8 23.2 5.825 23.2 12c0 6.176-5.024 11.2-11.2 11.2zm0 0"/>
    <path d="M12.398 10.41V6.352A.395.395 0 0 0 12 5.953a.395.395 0 0 0-.398.399v4.058a1.59 1.59 0 0 0-1.145 1.14H7.602a.401.401 0 0 0 0 .8l2.855.002c.18.687.8 1.199 1.543 1.199a1.6 1.6 0 0 0 1.602-1.598c0-.746-.512-1.367-1.204-1.543zM12 12.75a.799.799 0 1 1 0-1.598.799.799 0 1 1 0 1.598zm0 0M12 3.953c.223 0 .398-.18.398-.402v-.399a.398.398 0 1 0-.796 0v.399c0 .222.175.402.398.402zm0 0M12 19.953a.395.395 0 0 0-.398.399v.398a.398.398 0 1 0 .796 0v-.398a.395.395 0 0 0-.398-.399zm0 0M20.8 11.55h-.402a.401.401 0 0 0 0 .802h.403a.4.4 0 0 0 0-.801zm0 0M3.602 11.55h-.403a.401.401 0 0 0 0 .802h.403a.4.4 0 0 0 0-.801zm0 0M17.941 5.445l-.285.285a.399.399 0 1 0 .566.563l.282-.281a.4.4 0 0 0 0-.567.396.396 0 0 0-.563 0zm0 0M5.777 17.61l-.28.28a.4.4 0 0 0 .28.684c.102 0 .203-.039.282-.117l.285-.281a.4.4 0 0 0-.567-.567zm0 0M18.223 17.61a.4.4 0 0 0-.567.566l.285.281a.396.396 0 0 0 .563 0 .4.4 0 0 0 0-.566zm0 0M6.059 5.445a.396.396 0 0 0-.563 0 .4.4 0 0 0 0 .567l.281.281a.399.399 0 1 0 .566-.563zm0 0"/>
</svg>
